images/clients/Ebay.svg

<svg width="100" height="40" viewBox="0 0 100 40" fill="none" xmlns="http://www.w3.org/2000/svg">
<path d="M13.2837 8.64136C6.29281 8.64136 0.467285 11.5993 0.467285 20.5231C0.467285 27.5928 4.38453 32.0449 13.4642 32.0449C24.1515 32.0449 24.8366 25.0238 24.8366 25.0238H19.6581C19.6581 25.0238 18.5478 28.8044 13.1483 28.8044C8.75064 28.8044 5.58764 25.8416 5.58764 21.6889H25.3781V19.0829C25.3781 14.9745 22.763 8.64136 13.2837 8.64136V8.64136ZM13.1032 11.9719C17.2894 11.9719 20.1432 14.5295 20.1432 18.3628H5.70217C5.70217 14.2933 9.42719 11.9719 13.1032 11.9719V11.9719Z" fill="#E53238"/>
<path d="M25.3747 0V27.5633C25.3747 29.1279 25.2627 31.3247 25.2627 31.3247H30.2019C30.2019 31.3247 30.3792 29.7469 30.3792 28.3049C30.3792 28.3049 32.8194 32.1123 39.4547 32.1123C46.4419 32.1123 51.1881 27.2744 51.1881 20.3431C51.1881 13.8949 46.8286 8.70881 39.466 8.70881C32.5714 8.70881 30.429 12.4219 30.429 12.4219V0H25.3747ZM38.1911 12.1181C42.936 12.1181 45.9532 15.6301 45.9532 20.3431C45.9532 25.3969 42.4684 28.7031 38.225 28.7031C33.1608 28.7031 30.429 24.7596 30.429 20.3881C30.429 16.3146 32.8803 12.1181 38.1911 12.1181Z" fill="#0064D2"/>
<path d="M63.4629 8.64136C52.9456 8.64136 52.2711 14.3846 52.2711 15.3024H57.506C57.506 15.3024 57.7805 11.9494 63.1019 11.9494C66.5598 11.9494 69.2394 13.5278 69.2394 16.5626V17.6427H63.1019C54.954 17.6427 50.6465 20.0199 50.6465 24.8438C50.6465 29.5912 54.6265 32.1743 60.005 32.1743C67.335 32.1743 69.6963 28.1349 69.6963 28.1349C69.6963 29.7416 69.8205 31.3248 69.8205 31.3248H74.4743C74.4743 31.3248 74.2937 29.3623 74.2937 28.1068V17.2545C74.2937 10.1389 68.5387 8.64136 63.4629 8.64136V8.64136ZM69.2394 20.8832V22.3234C69.2394 24.2019 68.0771 28.8719 61.2347 28.8719C57.4879 28.8719 55.8814 27.007 55.8814 24.8438C55.8814 20.9085 61.2914 20.8832 69.2394 20.8832V20.8832Z" fill="#F5AF02"/>
<path d="M71.4746 9.54248H77.3639L85.8158 26.4297L94.2483 9.54248H99.5831L84.2234 39.607H78.6275L83.0597 31.2261L71.4746 9.54248Z" fill="#86B817"/>
</svg>

<svg xmlns="http://www.w3.org/2000/svg" width="100" height="40" fill="none" xmlns:v="https://vecta.io/nano"><path d="M13.284 8.641C6.293 8.641.467 11.599.467 20.523c0 7.07 3.917 11.522 12.997 11.522 10.687 0 11.372-7.021 11.372-7.021h-5.178s-1.11 3.781-6.51 3.781c-4.398 0-7.561-2.963-7.561-7.116h19.79v-2.606c0-4.108-2.615-10.442-12.094-10.442h0zm-.181 3.331c4.186 0 7.04 2.558 7.04 6.391H5.702c0-4.069 3.725-6.391 7.401-6.391h0z" fill="#e53238"/><path d="M25.375 0v27.563l-.112 3.761h4.939s.177-1.578.177-3.02c0 0 2.44 3.807 9.076 3.807 6.987 0 11.733-4.838 11.733-11.769 0-6.448-4.359-11.634-11.722-11.634-6.895 0-9.037 3.713-9.037 3.713V0h-5.054zm12.816 12.118c4.745 0 7.762 3.512 7.762 8.225 0 5.054-3.485 8.36-7.728 8.36-5.064 0-7.796-3.943-7.796-8.315 0-4.074 2.451-8.27 7.762-8.27z" fill="#0064d2"/><path d="M63.463 8.641c-10.517 0-11.192 5.743-11.192 6.661h5.235s.275-3.353 5.596-3.353c3.458 0 6.138 1.578 6.138 4.613v1.08h-6.138c-8.148 0-12.455 2.377-12.455 7.201 0 4.747 3.98 7.331 9.359 7.331 7.33 0 9.691-4.039 9.691-4.039 0 1.607.124 3.19.124 3.19h4.654s-.181-1.962-.181-3.218V17.255c0-7.116-5.755-8.613-10.831-8.613h0zm5.777 12.242v1.44c0 1.878-1.162 6.549-8.005 6.549-3.747 0-5.353-1.865-5.353-4.028 0-3.935 5.41-3.961 13.358-3.961h0z" fill="#f5af02"/><path d="M71.475 9.542h5.889l8.452 16.887 8.433-16.887h5.335l-15.36 30.065h-5.596l4.432-8.381L71.475 9.542z" fill="#86b817"/></svg>
